source/img/services/services-nav/crm-icon-active.svg

<svg width="32" height="32" viewBox="0 0 32 32" fill="none" xmlns="http://www.w3.org/2000/svg">
<path d="M8.92401 18.4949L8.54102 18.8779L8.69181 27.1122L9.585 27.6949H10.9413L11.988 27.1122V19.2609L11.3714 18.4949H8.92401Z" fill="url(#paint0_linear)"/>
<path d="M15.3506 16.5135L14.5601 16.7541V27.4154L15.3506 27.6615H17.0528L17.7337 27.1009V17.1665C17.8709 16.6942 17.5222 16.7754 17.0528 16.5134L15.3506 16.5135Z" fill="url(#paint1_linear)"/>
<path d="M20.3572 12.0144L19.9771 12.8359V27.107L20.9982 27.7278H22.5861L23.5881 26.8708V13.4846L23.208 12.0144C22.0011 11.3613 21.3865 11.4249 20.3572 12.0144Z" fill="url(#paint2_linear)"/>
<path d="M8.43115 15.7994C12.2504 15.5266 20.3254 13.0713 22.0713 5.43286M22.0713 5.43286L20.9801 6.25127M22.0713 5.43286L22.6169 6.52407" stroke="#0A3D76" stroke-width="0.7" stroke-linecap="round" stroke-linejoin="round"/>
<path d="M23.5876 20.8877V26.7517C23.5876 27.304 23.1399 27.7517 22.5876 27.7517H20.9766C20.4243 27.7517 19.9766 27.304 19.9766 26.7517V12.3379C19.9766 11.7856 20.4243 11.3379 20.9766 11.3379H22.5876C23.1399 11.3379 23.5876 11.7856 23.5876 12.3379V19.2464" stroke="#0A3D76" stroke-width="0.7" stroke-linecap="round"/>
<path d="M14.396 25.7329V17.2617C14.396 16.7094 14.8437 16.2617 15.396 16.2617H17.007C17.5593 16.2617 18.007 16.7094 18.007 17.2617V26.7514C18.007 27.3037 17.5593 27.7514 17.007 27.7514H15.396C14.8437 27.7514 14.396 27.2944 14.396 26.7422V26.7422" stroke="#0A3D76" stroke-width="0.7" stroke-linecap="round"/>
<path d="M8.48682 20.6117V26.7517C8.48682 27.304 8.93453 27.7517 9.48682 27.7517H11.0978C11.6501 27.7517 12.0978 27.304 12.0978 26.7517V19.2317C12.0978 18.6794 11.6501 18.2317 11.0978 18.2317H9.48682C8.93453 18.2317 8.48682 18.6794 8.48682 19.2317V19.4217" stroke="#0A3D76" stroke-width="0.5" stroke-linecap="round"/>
<defs>
<linearGradient id="paint0_linear" x1="11.8817" y1="23.0949" x2="8.64173" y2="23.0688" gradientUnits="userSpaceOnUse">
<stop stop-color="#A62E41"/>
<stop offset="1" stop-color="#E13152"/>
</linearGradient>
<linearGradient id="paint1_linear" x1="17.6651" y1="22.0875" x2="14.6536" y2="22.0689" gradientUnits="userSpaceOnUse">
<stop stop-color="#A62E41"/>
<stop offset="1" stop-color="#E13152"/>
</linearGradient>
<linearGradient id="paint2_linear" x1="23.4768" y1="19.638" x2="20.0824" y2="19.6217" gradientUnits="userSpaceOnUse">
<stop stop-color="#A62E41"/>
<stop offset="1" stop-color="#E13152"/>
</linearGradient>
</defs>
</svg>

<svg width="32" height="32" fill="none" xmlns="http://www.w3.org/2000/svg"><path d="M8.924 18.495l-.383.383.15 8.234.894.583h1.356l1.047-.583v-7.851l-.617-.766H8.924z" fill="url(#paint0_linear)"/><path d="M15.35 16.514l-.79.24v10.661l.79.247h1.703l.68-.561v-9.934c.138-.473-.21-.392-.68-.654H15.35z" fill="url(#paint1_linear)"/><path d="M20.357 12.014l-.38.822v14.271l1.021.62h1.588l1.002-.856V13.485l-.38-1.47c-1.207-.654-1.821-.59-2.85 0z" fill="url(#paint2_linear)"/><path d="M8.431 15.8c3.82-.273 11.894-2.729 13.64-10.367m0 0l-1.09.818m1.09-.818l.546 1.091" stroke="#0A3D76" stroke-width=".7" stroke-linecap="round" stroke-linejoin="round"/><path d="M23.588 20.888v5.864a1 1 0 01-1 1h-1.611a1 1 0 01-1-1V12.338a1 1 0 011-1h1.61a1 1 0 011 1v6.908m-9.191 6.487v-8.471a1 1 0 011-1h1.611a1 1 0 011 1v9.49a1 1 0 01-1 1h-1.611c-.552 0-1-.458-1-1.01v0" stroke="#0A3D76" stroke-width=".7" stroke-linecap="round"/><path d="M8.487 20.612v6.14a1 1 0 001 1h1.61a1 1 0 001-1v-7.52a1 1 0 00-1-1h-1.61a1 1 0 00-1 1v.19" stroke="#0A3D76" stroke-width=".5" stroke-linecap="round"/><defs><linearGradient id="paint0_linear" x1="11.882" y1="23.095" x2="8.642" y2="23.069" gradientUnits="userSpaceOnUse"><stop stop-color="#A62E41"/><stop offset="1" stop-color="#E13152"/></linearGradient><linearGradient id="paint1_linear" x1="17.665" y1="22.087" x2="14.654" y2="22.069" gradientUnits="userSpaceOnUse"><stop stop-color="#A62E41"/><stop offset="1" stop-color="#E13152"/></linearGradient><linearGradient id="paint2_linear" x1="23.477" y1="19.638" x2="20.082" y2="19.622" gradientUnits="userSpaceOnUse"><stop stop-color="#A62E41"/><stop offset="1" stop-color="#E13152"/></linearGradient></defs></svg>
